src/Images/history_mall.svg

<svg xmlns="http://www.w3.org/2000/svg" height="24px" viewBox="0 0 24 24" width="24px" fill="#ff7d00"><path d="M0 0h24v24H0V0z" fill="none"/><path d="M19 6h-2c0-2.76-2.24-5-5-5S7 3.24 7 6H5c-1.1 0-2 .9-2 2v12c0 1.1.9 2 2 2h14c1.1 0 2-.9 2-2V8c0-1.1-.9-2-2-2zm-7-3c1.66 0 3 1.34 3 3H9c0-1.66 1.34-3 3-3zm7 17H5V8h14v12zm-7-8c-1.66 0-3-1.34-3-3H7c0 2.76 2.24 5 5 5s5-2.24 5-5h-2c0 1.66-1.34 3-3 3z"/></svg>

<?xml version="1.0" encoding="utf-8"?>
<!-- Generator: Adobe Illustrator 16.0.3, SVG Export Plug-In . SVG Version: 6.00 Build 0)  -->
<!DOCTYPE svg PUBLIC "-//W3C//DTD SVG 1.1//EN" "http://www.w3.org/Graphics/SVG/1.1/DTD/svg11.dtd">
<svg version="1.1" id="Capa_1" xmlns="http://www.w3.org/2000/svg" xmlns:xlink="http://www.w3.org/1999/xlink" x="0px" y="0px"
	 width="24px" height="24px" viewBox="0 0 24 24" enable-background="new 0 0 24 24" xml:space="preserve">
<path fill="none" d="M0,0h24v24H0V0z"/>
<path fill="#FFFFFF" d="M19,6h-2c0-2.76-2.24-5-5-5S7,3.24,7,6H5C3.9,6,3,6.9,3,8v12c0,1.1,0.9,2,2,2h14c1.1,0,2-0.9,2-2V8
	C21,6.9,20.1,6,19,6z M12,3c1.66,0,3,1.34,3,3H9C9,4.34,10.34,3,12,3z M19,20H5V8h14V20z M12,12c-1.66,0-3-1.34-3-3H7
	c0,2.76,2.24,5,5,5s5-2.24,5-5h-2C15,10.66,13.66,12,12,12z"/>
</svg>
